icon-svg/ubiquiti-udm-pro.svg

<svg xmlns="http://www.w3.org/2000/svg" fill="none" viewBox="0 0 24 24"><path fill="#44739e" fill-rule="evenodd" d="M15.5254 4.7158h.5491v-.4992h-.5491zm-3.6217 6.0409c-1.0627-.0181-2.0817-.9453-2.0817-1.7249V4.2301H7.6426l.057 4.8017c0 1.8691 1.769 3.8259 4.3483 3.8259s4.3095-1.7583 4.3095-4.914h-1.1063V6.8993h1.0375V5.7388h-1.0229l-.0146-.7903h-.8294v.7903h.7141v1.1605h-1.006v1.5296c-.0816 1.5664-.9684 2.3493-2.2261 2.3278m-9.608 4.7532a.08.08 0 0 0-.04.01l-1.7483.9531c-.0846.0448-.0549.1804.0365.1804l22.8813.0001c.0937 0 .1222-.1369.0377-.1817l-1.7271-.952a.08.08 0 0 0-.0378-.01zm6.2608 1.905a.168.168 0 0 0-.1236.0558.2.2 0 0 0-.0513.1346v1.4296c0 .1045.0777.1904.1749.1904h6.2985a.168.168 0 0 0 .1236-.0558.2.2 0 0 0 .0512-.1346v-1.4296a.2.2 0 0 0-.0512-.1346.168.168 0 0 0-.1236-.0558zm15.44-.4279a.2.2 0 0 0-.013-.0733.19.19 0 0 0-.0378-.0621.17.17 0 0 0-.0568-.0416.16.16 0 0 0-.0672-.0146H.1748a.16.16 0 0 0-.0671.0146.17.17 0 0 0-.0569.0416.19.19 0 0 0-.0378.0621.21.21 0 0 0-.013.0733v2.6191c0 .1045.0788.1904.1748.1904h23.6469a.16.16 0 0 0 .0669-.0145.175.175 0 0 0 .0567-.0413.19.19 0 0 0 .0379-.0617.2.2 0 0 0 .0133-.0729zm-22.0505.7537a.2.2 0 0 0-.0512-.1346.168.168 0 0 0-.1236-.0558H.6342a.168.168 0 0 0-.1236.0558.2.2 0 0 0-.0512.1346v1.1435c0 .1045.0777.1903.1748.1903h1.137a.168.168 0 0 0 .1236-.0557.2.2 0 0 0 .0512-.1346zm14.3956-.3021a.074.074 0 0 0-.019-.0501.063.063 0 0 0-.0461-.0208h-.1314a.063.063 0 0 0-.0461.0208.074.074 0 0 0-.019.0501.077.077 0 0 1-.0191.0514.06.06 0 0 1-.0472.0208h-.0652a.126.126 0 0 0-.0925.0415.15.15 0 0 0-.0389.1003v.1917c0 .1045.0789.1903.1749.1903h.4376c.0464 0 .0909-.02.1236-.0557a.2.2 0 0 0 .0512-.1346v-.1917a.15.15 0 0 0-.0388-.1003.126.126 0 0 0-.0926-.0415h-.0651a.06.06 0 0 1-.0472-.0208.077.077 0 0 1-.0191-.0514m.7005 0c0-.0385.0297-.0709.0651-.0709h.1314c.0366 0 .0663.0324.0663.0709 0 .0399.0286.0722.0652.0722h.0651c.0731 0 .1314.0635.1314.1418v.1917a.2.2 0 0 1-.0512.1346.168.168 0 0 1-.1236.0557h-.4377a.168.168 0 0 1-.1236-.0557.2.2 0 0 1-.0512-.1346v-.1917c0-.0783.0594-.1418.1314-.1418h.0663a.062.062 0 0 0 .0464-.0212.07.07 0 0 0 .0141-.0234.08.08 0 0 0 .0046-.0276m1.2684 0a.075.075 0 0 0-.0195-.0506.061.061 0 0 0-.0468-.0203h-.1303a.06.06 0 0 0-.0252.005.07.07 0 0 0-.0216.0153.074.074 0 0 0-.0194.0506.08.08 0 0 1-.0047.0276.07.07 0 0 1-.014.0234.07.07 0 0 1-.0213.0157.06.06 0 0 1-.0252.0055h-.0662a.126.126 0 0 0-.0918.0419.15.15 0 0 0-.0385.0999v.1917c0 .1045.0777.1903.1748.1903h.4377a.168.168 0 0 0 .1236-.0557.2.2 0 0 0 .0512-.1346v-.1917a.15.15 0 0 0-.0389-.1003.126.126 0 0 0-.0925-.0415h-.0663a.062.062 0 0 1-.0464-.0212.07.07 0 0 1-.0141-.0234.08.08 0 0 1-.0046-.0276m.6993 0c0-.0385.0297-.0709.0663-.0709h.1314c.0354 0 .0651.0324.0651.0709 0 .0399.0297.0722.0652.0722h.0662c.072 0 .1315.0635.1315.1418v.1917a.2.2 0 0 1-.0513.1346.168.168 0 0 1-.1236.0557h-.4376a.168.168 0 0 1-.1237-.0557.2.2 0 0 1-.0512-.1346v-.1917c0-.0783.0583-.1418.1303-.1418h.0663a.062.062 0 0 0 .0464-.0212.07.07 0 0 0 .0141-.0234.08.08 0 0 0 .0046-.0276m2.2317.8586a.08.08 0 0 0-.0047-.0278.07.07 0 0 0-.0144-.0236.063.063 0 0 0-.0472-.0208h-.1314a.063.063 0 0 0-.0461.0208.074.074 0 0 0-.019.0501.08.08 0 0 1-.0048.0278.07.07 0 0 1-.036.0392.06.06 0 0 1-.0255.0052h-.0651a.126.126 0 0 0-.0926.0415.15.15 0 0 0-.0388.1003v.1917c0 .1045.0788.1903.1748.1903h.4376a.168.168 0 0 0 .1237-.0557.2.2 0 0 0 .0512-.1346v-.1929a.15.15 0 0 0-.0389-.1004.126.126 0 0 0-.0925-.0415h-.0652a.06.06 0 0 1-.0255-.0051.07.07 0 0 1-.0217-.0156.07.07 0 0 1-.0143-.0236.08.08 0 0 1-.0048-.0278zm-2.2317.6184c0 .0398.0297.0709.0663.0709h.1314a.063.063 0 0 0 .0461-.0208.074.074 0 0 0 .019-.0501c0-.0399.0297-.0722.0652-.0722h.0662a.126.126 0 0 0 .0926-.0415.15.15 0 0 0 .0389-.1003v-.1929a.2.2 0 0 0-.0513-.1346.168.168 0 0 0-.1236-.0558h-.4376a.168.168 0 0 0-.1237.0558.2.2 0 0 0-.0512.1346v.1916c0 .0784.0583.1419.1303.1419h.0663c.0365 0 .0651.0335.0651.0734m-.7427 0a.08.08 0 0 1-.0051.0274.07.07 0 0 1-.0144.0232.064.064 0 0 1-.0468.0203h-.1314a.063.063 0 0 1-.0461-.0208.074.074 0 0 1-.0191-.0501.076.076 0 0 0-.0186-.051.07.07 0 0 0-.0213-.0157.06.06 0 0 0-.0252-.0055h-.0663a.126.126 0 0 1-.0925-.0415.15.15 0 0 1-.0389-.1003v-.1929c0-.1045.0789-.1904.1749-.1904h.4376c.0971 0 .1748.0859.1748.1904v.1916a.15.15 0 0 1-.0384.0999.127.127 0 0 1-.0918.042h-.0663a.064.064 0 0 0-.0465.0212.07.07 0 0 0-.014.0234.08.08 0 0 0-.0046.0288m-1.225 0c0 .0398.0297.0709.0651.0709h.1314a.062.062 0 0 0 .0468-.0203.072.072 0 0 0 .0195-.0506c0-.0399.0286-.0722.0652-.0722h.0651a.126.126 0 0 0 .0925-.0415.15.15 0 0 0 .0389-.1003v-.1929a.2.2 0 0 0-.0512-.1346.168.168 0 0 0-.1236-.0558h-.4377a.168.168 0 0 0-.1236.0558.2.2 0 0 0-.0512.1346v.1916c0 .0784.0594.1419.1314.1419h.0663c.0354 0 .0651.0335.0651.0734m-.7005 0a.074.074 0 0 1-.019.0501.063.063 0 0 1-.0461.0208h-.1314a.063.063 0 0 1-.0461-.0208.074.074 0 0 1-.019-.0501.08.08 0 0 0-.0048-.0279.07.07 0 0 0-.0143-.0235.06.06 0 0 0-.0472-.0208h-.0652a.126.126 0 0 1-.0925-.0415.15.15 0 0 1-.0389-.1003v-.1929c0-.1045.0789-.1904.1749-.1904h.4376c.0971 0 .1748.0859.1748.1904v.1916a.15.15 0 0 1-.0388.1004.127.127 0 0 1-.0926.0415h-.0651a.06.06 0 0 0-.0255.0051.07.07 0 0 0-.0217.0156.07.07 0 0 0-.0143.0236.08.08 0 0 0-.0048.0291m6.342-1.3575a.2.2 0 0 0-.0508-.1342.168.168 0 0 0-.1229-.0562h-.5257a.168.168 0 0 0-.1236.0558.2.2 0 0 0-.0512.1346v.1904c0 .1057.0789.1903.1748.1903h.5257a.168.168 0 0 0 .1236-.0557.2.2 0 0 0 .0512-.1346zm-.8742 1.0476c0-.1057.0789-.1903.1748-.1903h.5257c.096 0 .1748.0846.1748.1903v.1904a.2.2 0 0 1-.0512.1346.168.168 0 0 1-.1236.0558h-.5257a.168.168 0 0 1-.1236-.0558.2.2 0 0 1-.0512-.1346zm-13.342.7142a.16.16 0 0 1-.065-.0141.175.175 0 0 1-.0571-.0412.19.19 0 0 1-.0382-.0619.2.2 0 0 1-.0134-.0731v-1.6188c0-.1058.0788-.1904.176-.1904h6.4733c.096 0 .1748.0846.1748.1904v1.6188a.2.2 0 0 1-.0512.1346.168.168 0 0 1-.1236.0557z" clip-rule="evenodd"/></svg>

<svg width="24" height="24" viewBox="0 0 24 24" fill="none" xmlns="http://www.w3.org/2000/svg">
<path fill-rule="evenodd" clip-rule="evenodd" d="M15.5254 4.71579L16.0745 4.71579V4.21661L15.5254 4.21661V4.71579ZM11.9037 10.7567C10.841 10.7386 9.82196 9.81141 9.82197 9.03181V4.23015L7.64259 4.23014L7.69955 9.03181C7.69955 10.9009 9.46868 12.8577 12.0479 12.8577C14.6271 12.8577 16.3574 11.0994 16.3574 7.9437H15.7815H15.2511V7.42148V6.89926H16.2886V5.73877H15.2657L15.2511 4.94848H14.4217V5.73877H15.1358V6.89926H14.1298V8.42887C14.0482 9.99533 13.1614 10.7782 11.9037 10.7567ZM2.29567 15.5099C2.2818 15.5098 2.2681 15.5132 2.25567 15.5199L0.507354 16.473C0.422795 16.5178 0.452505 16.6534 0.54392 16.6534L23.4252 16.6535C23.5189 16.6535 23.5474 16.5166 23.4629 16.4718L21.7358 15.5198C21.724 15.5134 21.7111 15.51 21.698 15.5098L2.29567 15.5099ZM8.55647 17.4149C8.5101 17.4149 8.46563 17.4349 8.43285 17.4707C8.40006 17.5064 8.38164 17.5548 8.38164 17.6053V19.0349C8.38164 19.1394 8.45934 19.2253 8.55647 19.2253H14.855C14.9014 19.2253 14.9458 19.2052 14.9786 19.1695C15.0114 19.1338 15.0298 19.0854 15.0298 19.0349V17.6053C15.0298 17.5548 15.0114 17.5064 14.9786 17.4707C14.9458 17.4349 14.9014 17.4149 14.855 17.4149H8.55647ZM23.9965 16.987C23.9967 16.9619 23.9923 16.937 23.9835 16.9137C23.9748 16.8905 23.962 16.8694 23.9457 16.8516C23.9295 16.8337 23.9101 16.8196 23.8889 16.81C23.8676 16.8003 23.8447 16.7954 23.8217 16.7954H0.174835C0.15178 16.7954 0.128952 16.8003 0.107665 16.81C0.0863789 16.8196 0.0670547 16.8337 0.050805 16.8516C0.0345554 16.8694 0.0217012 16.8905 0.0129826 16.9137C0.00426397 16.937 -0.000146956 16.9619 3.73464e-06 16.987V19.6061C3.73464e-06 19.7106 0.0788494 19.7965 0.174835 19.7965H23.8217C23.8446 19.7965 23.8674 19.7916 23.8886 19.782C23.9098 19.7724 23.9291 19.7584 23.9453 19.7407C23.9615 19.7231 23.9744 19.7021 23.9832 19.679C23.992 19.6559 23.9965 19.6311 23.9965 19.6061V16.987ZM1.94601 17.7407C1.94601 17.6902 1.92759 17.6418 1.8948 17.6061C1.86201 17.5704 1.81754 17.5503 1.77117 17.5503H0.634197C0.587829 17.5503 0.54336 17.5704 0.510573 17.6061C0.477785 17.6418 0.459366 17.6902 0.459366 17.7407V18.8842C0.459366 18.9887 0.537069 19.0745 0.634197 19.0745H1.77117C1.81754 19.0745 1.86201 19.0545 1.8948 19.0188C1.92759 18.9831 1.94601 18.9347 1.94601 18.8842V17.7407ZM16.3416 17.4386C16.3416 17.4198 16.3348 17.4018 16.3226 17.3885C16.3103 17.3752 16.2938 17.3677 16.2765 17.3677H16.1451C16.1278 17.3677 16.1112 17.3752 16.099 17.3885C16.0868 17.4018 16.08 17.4198 16.08 17.4386C16.0801 17.4482 16.0785 17.4576 16.0752 17.4664C16.0719 17.4753 16.0671 17.4833 16.0609 17.49C16.0547 17.4968 16.0473 17.5021 16.0392 17.5057C16.0311 17.5092 16.0224 17.511 16.0137 17.5108H15.9485C15.9139 17.5108 15.8806 17.5257 15.856 17.5523C15.8314 17.5788 15.8174 17.6149 15.8171 17.6526V17.8443C15.8171 17.9488 15.896 18.0346 15.992 18.0346H16.4296C16.476 18.0346 16.5205 18.0146 16.5532 17.9789C16.586 17.9432 16.6044 17.8948 16.6044 17.8443V17.6526C16.6041 17.6149 16.5902 17.5788 16.5656 17.5523C16.5409 17.5257 16.5077 17.5108 16.473 17.5108H16.4079C16.3992 17.511 16.3905 17.5092 16.3824 17.5057C16.3743 17.5021 16.3669 17.4968 16.3607 17.49C16.3545 17.4833 16.3496 17.4753 16.3464 17.4664C16.3431 17.4576 16.3415 17.4482 16.3416 17.4386ZM17.0421 17.4386C17.0421 17.4001 17.0718 17.3677 17.1072 17.3677H17.2386C17.2752 17.3677 17.3049 17.4001 17.3049 17.4386C17.3049 17.4785 17.3335 17.5108 17.3701 17.5108H17.4352C17.5083 17.5108 17.5666 17.5743 17.5666 17.6526V17.8443C17.5666 17.8948 17.5482 17.9432 17.5154 17.9789C17.4826 18.0146 17.4381 18.0346 17.3918 18.0346H16.9541C16.9077 18.0346 16.8633 18.0146 16.8305 17.9789C16.7977 17.9432 16.7793 17.8948 16.7793 17.8443V17.6526C16.7793 17.5743 16.8387 17.5108 16.9107 17.5108H16.977C16.9856 17.5108 16.9942 17.5089 17.0022 17.5053C17.0101 17.5016 17.0174 17.4963 17.0234 17.4896C17.0295 17.4829 17.0343 17.4749 17.0375 17.4662C17.0407 17.4574 17.0423 17.4481 17.0421 17.4386ZM18.3105 17.4386C18.3105 17.4292 18.3088 17.4199 18.3054 17.4112C18.3021 17.4025 18.2972 17.3946 18.291 17.388C18.2848 17.3814 18.2775 17.3762 18.2695 17.3727C18.2615 17.3693 18.2529 17.3675 18.2442 17.3677H18.1139C18.1053 17.3675 18.0967 17.3693 18.0887 17.3727C18.0806 17.3762 18.0733 17.3814 18.0671 17.388C18.061 17.3946 18.0561 17.4025 18.0527 17.4112C18.0494 17.4199 18.0477 17.4292 18.0477 17.4386C18.0478 17.4481 18.0462 17.4574 18.043 17.4662C18.0398 17.4749 18.0351 17.4829 18.029 17.4896C18.0229 17.4963 18.0157 17.5016 18.0077 17.5053C17.9997 17.5089 17.9912 17.5108 17.9825 17.5108H17.9163C17.8818 17.5111 17.8488 17.5262 17.8245 17.5527C17.8001 17.5792 17.7863 17.6151 17.786 17.6526V17.8443C17.786 17.9488 17.8637 18.0346 17.9608 18.0346H18.3985C18.4448 18.0346 18.4893 18.0146 18.5221 17.9789C18.5549 17.9432 18.5733 17.8948 18.5733 17.8443V17.6526C18.573 17.6149 18.559 17.5788 18.5344 17.5523C18.5098 17.5257 18.4766 17.5108 18.4419 17.5108H18.3756C18.367 17.5108 18.3584 17.5089 18.3504 17.5053C18.3425 17.5016 18.3352 17.4963 18.3292 17.4896C18.3231 17.4829 18.3183 17.4749 18.3151 17.4662C18.3119 17.4574 18.3103 17.4481 18.3105 17.4386ZM19.0098 17.4386C19.0098 17.4001 19.0395 17.3677 19.0761 17.3677H19.2075C19.2429 17.3677 19.2726 17.4001 19.2726 17.4386C19.2726 17.4785 19.3023 17.5108 19.3378 17.5108H19.404C19.476 17.5108 19.5355 17.5743 19.5355 17.6526V17.8443C19.5355 17.8948 19.517 17.9432 19.4842 17.9789C19.4515 18.0146 19.407 18.0346 19.3606 18.0346H18.923C18.8766 18.0346 18.8321 18.0146 18.7993 17.9789C18.7666 17.9432 18.7481 17.8948 18.7481 17.8443V17.6526C18.7481 17.5743 18.8064 17.5108 18.8784 17.5108H18.9447C18.9533 17.5108 18.9619 17.5089 18.9699 17.5053C18.9778 17.5016 18.9851 17.4963 18.9911 17.4896C18.9972 17.4829 19.002 17.4749 19.0052 17.4662C19.0084 17.4574 19.01 17.4481 19.0098 17.4386ZM21.2415 18.2972C21.2416 18.2876 21.24 18.2782 21.2368 18.2694C21.2335 18.2605 21.2286 18.2525 21.2224 18.2458C21.2162 18.239 21.2089 18.2337 21.2008 18.2302C21.1926 18.2266 21.184 18.2248 21.1752 18.225H21.0438C21.0265 18.225 21.01 18.2325 20.9977 18.2458C20.9855 18.2591 20.9787 18.2771 20.9787 18.2959C20.9788 18.3054 20.9772 18.3149 20.9739 18.3237C20.9707 18.3326 20.9658 18.3406 20.9596 18.3473C20.9534 18.3541 20.946 18.3594 20.9379 18.3629C20.9298 18.3665 20.9211 18.3683 20.9124 18.3681H20.8473C20.8126 18.3681 20.7794 18.383 20.7547 18.4096C20.7301 18.4361 20.7162 18.4722 20.7159 18.5099V18.7016C20.7159 18.8061 20.7947 18.8919 20.8907 18.8919H21.3283C21.3747 18.8919 21.4192 18.8719 21.452 18.8362C21.4847 18.8005 21.5032 18.752 21.5032 18.7016V18.5087C21.5029 18.471 21.4889 18.4349 21.4643 18.4083C21.4397 18.3817 21.4064 18.3668 21.3718 18.3668H21.3066C21.2979 18.367 21.2892 18.3653 21.2811 18.3617C21.273 18.3581 21.2656 18.3528 21.2594 18.3461C21.2532 18.3393 21.2484 18.3313 21.2451 18.3225C21.2418 18.3137 21.2402 18.3042 21.2403 18.2947L21.2415 18.2972ZM19.0098 18.9156C19.0098 18.9554 19.0395 18.9865 19.0761 18.9865H19.2075C19.2248 18.9865 19.2413 18.979 19.2536 18.9657C19.2658 18.9524 19.2726 18.9344 19.2726 18.9156C19.2726 18.8757 19.3023 18.8434 19.3378 18.8434H19.404C19.4387 18.8434 19.472 18.8285 19.4966 18.8019C19.5212 18.7754 19.5352 18.7393 19.5355 18.7016V18.5087C19.5355 18.4582 19.517 18.4098 19.4842 18.3741C19.4515 18.3384 19.407 18.3183 19.3606 18.3183H18.923C18.8766 18.3183 18.8321 18.3384 18.7993 18.3741C18.7666 18.4098 18.7481 18.4582 18.7481 18.5087V18.7003C18.7481 18.7787 18.8064 18.8422 18.8784 18.8422H18.9447C18.9812 18.8422 19.0098 18.8757 19.0098 18.9156ZM18.2671 18.9156C18.2671 18.925 18.2653 18.9343 18.262 18.943C18.2587 18.9517 18.2538 18.9596 18.2476 18.9662C18.2414 18.9728 18.2341 18.978 18.2261 18.9814C18.218 18.9849 18.2094 18.9866 18.2008 18.9865H18.0694C18.0521 18.9865 18.0355 18.979 18.0233 18.9657C18.0111 18.9524 18.0042 18.9344 18.0042 18.9156C18.0044 18.9061 18.0028 18.8968 17.9996 18.888C17.9964 18.8793 17.9916 18.8713 17.9856 18.8646C17.9795 18.8579 17.9723 18.8526 17.9643 18.8489C17.9563 18.8453 17.9478 18.8434 17.9391 18.8434H17.8728C17.8382 18.8434 17.8049 18.8285 17.7803 18.8019C17.7557 18.7754 17.7417 18.7393 17.7414 18.7016V18.5087C17.7414 18.4042 17.8203 18.3183 17.9163 18.3183H18.3539C18.451 18.3183 18.5287 18.4042 18.5287 18.5087V18.7003C18.5284 18.7378 18.5146 18.7737 18.4903 18.8002C18.4659 18.8268 18.4329 18.8418 18.3985 18.8422H18.3322C18.3235 18.8421 18.315 18.844 18.307 18.8477C18.299 18.8513 18.2918 18.8566 18.2857 18.8634C18.2797 18.8701 18.2749 18.878 18.2717 18.8868C18.2685 18.8955 18.2669 18.9061 18.2671 18.9156ZM17.0421 18.9156C17.0421 18.9554 17.0718 18.9865 17.1072 18.9865H17.2386C17.2473 18.9866 17.2559 18.9849 17.2639 18.9814C17.272 18.978 17.2793 18.9728 17.2854 18.9662C17.2916 18.9596 17.2965 18.9517 17.2999 18.943C17.3032 18.9343 17.3049 18.925 17.3049 18.9156C17.3049 18.8757 17.3335 18.8434 17.3701 18.8434H17.4352C17.4698 18.8434 17.5031 18.8285 17.5277 18.8019C17.5523 18.7754 17.5663 18.7393 17.5666 18.7016V18.5087C17.5666 18.4582 17.5482 18.4098 17.5154 18.3741C17.4826 18.3384 17.4381 18.3183 17.3918 18.3183H16.9541C16.9077 18.3183 16.8633 18.3384 16.8305 18.3741C16.7977 18.4098 16.7793 18.4582 16.7793 18.5087V18.7003C16.7793 18.7787 16.8387 18.8422 16.9107 18.8422H16.977C17.0124 18.8422 17.0421 18.8757 17.0421 18.9156ZM16.3416 18.9156C16.3416 18.9344 16.3348 18.9524 16.3226 18.9657C16.3103 18.979 16.2938 18.9865 16.2765 18.9865H16.1451C16.1278 18.9865 16.1112 18.979 16.099 18.9657C16.0868 18.9524 16.08 18.9344 16.08 18.9156C16.0801 18.906 16.0785 18.8966 16.0752 18.8877C16.0719 18.8789 16.0671 18.8709 16.0609 18.8642C16.0547 18.8574 16.0473 18.8521 16.0392 18.8485C16.0311 18.845 16.0224 18.8432 16.0137 18.8434H15.9485C15.9139 18.8434 15.8806 18.8285 15.856 18.8019C15.8314 18.7754 15.8174 18.7393 15.8171 18.7016V18.5087C15.8171 18.4042 15.896 18.3183 15.992 18.3183H16.4296C16.5267 18.3183 16.6044 18.4042 16.6044 18.5087V18.7003C16.6041 18.738 16.5902 18.7741 16.5656 18.8007C16.5409 18.8272 16.5077 18.8422 16.473 18.8422H16.4079C16.3992 18.842 16.3905 18.8437 16.3824 18.8473C16.3743 18.8509 16.3669 18.8562 16.3607 18.8629C16.3545 18.8696 16.3496 18.8777 16.3464 18.8865C16.3431 18.8953 16.3415 18.906 16.3416 18.9156ZM22.6836 17.5581C22.6836 17.5078 22.6653 17.4596 22.6328 17.4239C22.6002 17.3882 22.556 17.368 22.5099 17.3677H21.9842C21.9379 17.3677 21.8934 17.3878 21.8606 17.4235C21.8278 17.4592 21.8094 17.5076 21.8094 17.5581V17.7485C21.8094 17.8542 21.8883 17.9388 21.9842 17.9388H22.5099C22.5562 17.9388 22.6007 17.9188 22.6335 17.8831C22.6663 17.8474 22.6847 17.7989 22.6847 17.7485L22.6836 17.5581ZM21.8094 18.6057C21.8094 18.5 21.8883 18.4154 21.9842 18.4154H22.5099C22.6059 18.4154 22.6847 18.5 22.6847 18.6057V18.7961C22.6847 18.8466 22.6663 18.895 22.6335 18.9307C22.6007 18.9664 22.5562 18.9865 22.5099 18.9865H21.9842C21.9379 18.9865 21.8934 18.9664 21.8606 18.9307C21.8278 18.895 21.8094 18.8466 21.8094 18.7961V18.6057ZM8.46734 19.3199C8.44507 19.3198 8.42301 19.315 8.40237 19.3058C8.38103 19.2963 8.36162 19.2823 8.34527 19.2646C8.32891 19.2469 8.31593 19.2259 8.30707 19.2027C8.29821 19.1795 8.29365 19.1547 8.29366 19.1296V17.5108C8.29366 17.405 8.3725 17.3204 8.46963 17.3204H14.943C15.039 17.3204 15.1178 17.405 15.1178 17.5108V19.1296C15.1178 19.1801 15.0994 19.2285 15.0666 19.2642C15.0338 19.2999 14.9893 19.3199 14.943 19.3199H8.46963H8.46734Z" fill="#44739E"/>
</svg>
